**kern	**kern	**dynam
*part1	*part1	*part1
*staff2	*staff1	*
*I"Piano	*	*
*clefF4	*clefG2	*
*k[f#]	*k[f#]	*
=1	=1	=1
8GGGG^^ 8GGG	8G 8B 8g	ff
8r	8r	.
*X8	*	*
8r	8g	.
*	*^	*
8DDD: 8FFFn: 8AAA: 8DD:	8.a^^L	8A 8d	f
8r	.	8re	.
.	16gK	.	.
8r	8fnJ	8re	.
=	=	=	=
!	!LO:TX:b:i:t=cresc.	!	!
8GGG: 8BBB: 8DD: 8GG:	4g^^	8G 8B	.
8r	.	8re	.
8r	8g	8re	.
*	*v	*v	*
8DDD: 8FFFn: 8AAA: 8DD:	4.d^^ 4.fn 4.dd	.
8r	.	.
8r	.	.
=	=	=
*	*^	*
8GGG: 8BBB: 8DD: 8GG:	4g^^	8G 8B	.
8r	.	8re	.
8r	8g	8re	.
*	*v	*v	*
8DDD: 8FFFn: 8AAA: 8DD:	4.d^^ 4.fn 4.dd	.
8r	.	.
8r	.	.
=	=	=
*	*^	*
8GGG: 8BBB: 8DD: 8GG:	4g^^	8G 8B	.
8r	.	8re	.
8r	8g	8re	.
*	*v	*v	*
8DDD: 8FFFn: 8AAA: 8DD:	4.d^^ 4.fn 4.dd	.
8r	.	.
8r	.	.
=||	=||	=||
*k[b-e-]	*k[b-e-]	*
*8ba	*	*
*tremolo	*	*
*	*tremolo	*
32GGGG^^LLL	32b-^^ 32ggLLL	ff <
32GGG	32g	.
32GGGG^^	32b-^^ 32gg	.
32GGG	32g	.
32GGGG^^	32b-^^ 32gg	.
32GGG	32g	.
32GGGG^^	32b-^^ 32gg	.
32GGG	32g	.
32GGGG^^	32b-^^ 32gg	.
32GGG	32g	.
32GGGG^^	32b-^^ 32gg	.
32GGG	32g	.
32GGGG^^	32b-^^ 32gg	.
32GGG	32g	.
32GGGG^^	32b-^^ 32gg	.
32GGG	32g	.
32GGGG^^	32b-^^ 32gg	.
32GGG	32g	.
32GGGG^^	32b-^^ 32gg	.
32GGG	32g	.
32GGGG^^	32b-^^ 32gg	.
32GGG	32g	.
32GGGG^^	32b-^^ 32gg	.
32GGGJJJ	32gJJJ	.
=	=	=
32GGGGLLL	32b- 32ggLLL	.
32GGG	32g	.
32GGGG	32b- 32gg	.
32GGG	32g	.
32GGGG	32b- 32gg	.
32GGG	32g	.
32GGGG	32b- 32gg	.
32GGG	32g	.
32GGGG	32b- 32gg	.
32GGG	32g	.
32GGGG	32b- 32gg	.
32GGG	32g	.
32GGGG	32b- 32gg	.
32GGG	32g	.
32GGGG	32b- 32gg	.
32GGG	32g	.
32GGGG	32b- 32gg	.
32GGG	32g	.
32GGGG	32b- 32gg	.
32GGG	32g	.
32GGGG	32b- 32gg	.
32GGG	32g	.
32GGGG	32b- 32gg	.
32GGGJJJ	32gJJJ	.
*	*Xtremolo	*
*Xtremolo	*	*
=	=	=
8GGGG 8BBBB- 8DDD 8GGG	8g` 8b- 8gg	[ fff
*X8ba	*	*
8r	8r	.
8r	8r	.
4r	4r	.
8r;	8r;	.
==	==	==
*-	*-	*-
!!!system-decoration: {(s1,s2)}
